X:42
T:SHAMBUY4- She got money by the bargain
S:Songs in Flora's Opera (May, 1730)
Q:1/4=120
L:1/4
M:6/4
K:G
D|GABBAG|FGAAGF|GABBGB|d3g2D|GABBAG|FGAAGF|GEGFE^D|
E3G2||G|d3/2 e/ddBG|gfedBG|d3/2 e/ddBG|F3A3|\
D3/2 E/DDB,D|EFGAF^D|EGEAGF|E3G2|]

